X:1
T:Title
%%score { ( 1 3 ) | ( 2 4 ) }
L:1/8
M:4/4
K:A
V:1 treble nm="Grand Piano"
V:3 treble 
V:2 bass 
V:4 bass 
V:1
 z4 z2[Q:1/4=100] [CE]>[CA] | [Ec]>[Ec] [Ec]>[Ec] [Ec]2 [CA]>[Ec] | [Ae]4 [Ec]2 [CA]>[DB] | %3
 [Ec]>[Ec] [Ec]>[Ec] [EA]2 [DG]>[CA] | B6[K:bass][K:treble] z2 | [Ec]>[Ec] [Ec]>[Ec] [Ec]2 [=Ge]2 | %6
 [Fe]4 [Fd]2 [EA]>[FB] | c>c c>A B2 B2 |[M:3/4] [CA]6 |[M:1/4] [CE]>[CE] |[M:4/4] z z/ c/- c4 z2 | %11
 z z/ d/- d4 z2 | [Ec]>[Ec] [Ec]>[Ec] [EA]2 [DG][CA] | B6 E>E | z z/ c/- c4 z2 | z z/ A/- A4 z2 | %16
 c>c c>A B2 B2 |[M:3/4] [CA]6 |] %18
V:2
 z4 z2 [A,,A,]>[A,,A,] | [A,,A,]>[A,,A,] [A,,A,]>[A,,A,] [A,,A,]2 [A,,A,]>[A,,A,] | %2
 [A,,C]4 [A,,A,]2 [A,,E,]>[A,,E,] | [A,,A,]>[A,,A,] [A,,A,]>[A,,A,] [C,A,]2 [B,,E,]>[A,,F,] | %4
 [G,E]6 z2 | [A,,A,]>[A,,A,] [A,,A,]>[A,,A,] [A,,A,]2 [C,A,]2 | [D,A,]4 [D,A,]2 [C,A,]>[D,A,] | %7
 [E,A,E]>[E,A,E] [E,A,E]>[E,A,C] [E,G,D]2 [E,G,D]2 |[M:3/4] [A,,A,]6 |[M:1/4] [A,,A,]>[A,,A,] | %10
[M:4/4] [A,,A,]>[A,,A,] [A,,A,]>[A,,A,] [A,,A,]2 [B,,G,]>[C,A,] | %11
 [D,A,]>[D,A,] [D,A,]>[D,A,] [D,A,]2 [C,A,]>[B,,G,] | %12
 [A,,A,]>[A,,A,] [A,,A,]>[A,,A,] [C,A,]2 [B,,E,][A,,F,] | [E,G,E]6 [E,B,D]>[E,B,D] | %14
 [A,,A,]>[A,,A,] [A,,A,]>[A,,A,] [A,,A,]2 [B,,G,]>[C,A,] | %15
 [D,A,]>[D,D] [D,D]>[D,D] [D,D]2 [C,A,]>[D,A,] | %16
 [E,A,E]>[E,A,E] [E,A,E]>[E,A,C] [E,G,D]2 [E,G,D]2 |[M:3/4] [A,,A,]6 |] %18
V:3
 x8 | x8 | x8 | x8 | z4[K:bass] E,D,[K:treble] [EA]>[EB] | x8 | x8 | x8 |[M:3/4] x6 |[M:1/4] x2 | %10
[M:4/4] [CE]>E E>E E2 [DB]>[CA] | [FA]>F F>F F2 [EA]>[EB] | x8 | x8 | [CE]>E E>E E2 [EB]>[EA] | %15
 [DF]>F F>F F2 [EA]>[EB] | x8 |[M:3/4] x6 |] %18
V:4
 x8 | x8 | x8 | x8 | E,4 z2 [C,A,]>[B,,G,] | x8 | x8 | x8 |[M:3/4] x6 |[M:1/4] x2 |[M:4/4] x8 | %11
 x8 | x8 | x8 | x8 | x8 | x8 |[M:3/4] x6 |] %18

